X:1
T:White Christmas
C:Irving Berlin
L:1/4
M:C
I:linebreak $
K:A
"A" C4 |"Bm" D"A" C"Ao" =C"Bbo" C |"Bm" D4 |"Co" ^D"C#m" E3 |$"D" F2 G A |"G#ø" B A G F |
"C#m" E2"F#m" z2 |"Bm" z2"E7" A, B, |$"A" C2 C2 |"A7" C F2 EOx///||"D" A,2 A,2 |"G7" A, E2 D |$
"C#m" C2"F#m" z2 |"Bm" D C"C#m" B, A, |"D6" B,4 |"E7""_D.C. al Coda" z4 ||$Ox/"D" A4 |"G7" z2 A, B, |
"C#m" C2"F#m" C2 |"Bm" F G,"E7" G, G, |"A" A,4 | z4 |]

